X: 87
T:Le Papier, Le Gaboteur
R:Jig
C:Emile Benoit
M:6/8
L:1/8
Z:bil@blueskiesink.com
K:D
|:Ace a2 e|fed cBA|GBd gdB|=c2 e dBG|Ace a2 e|fed cBA|GBd gdB|=c2 e dBG
A3:|
|:A=cd e2 e|fed cBA|GAB =c2 =c|d2 d efe|Acd e2 e|fed =cBA|GAB =cB=c|dBG
A3:|
<end>
<start>
